Simply-Red-Circles/scalable/apps/git.svg

<svg xmlns="http://www.w3.org/2000/svg" width="48" height="48" viewBox="0 0 12.7 12.7"><path d="M6.34.07a6.29 6.29 0 0 0-6.29 6.3 6.29 6.29 0 0 0 6.3 6.28 6.29 6.29 0 0 0 6.28-6.29A6.29 6.29 0 0 0 6.34.07zm-.01.94a5.4 5.4 0 0 1 5.4 5.4 5.4 5.4 0 0 1-5.4 5.41 5.4 5.4 0 0 1-5.41-5.4 5.4 5.4 0 0 1 1.71-3.94L3.77 3.6a.98.98 0 0 0-.1.42.98.98 0 0 0 .65.93v3.07a.98.98 0 0 0-.65.92.98.98 0 0 0 .98.99.98.98 0 0 0 .99-.99.98.98 0 0 0-.66-.92V4.96a.98.98 0 0 0 .1-.04l1.3 1.31a.98.98 0 0 0-.09.43.98.98 0 0 0 .99.98.98.98 0 0 0 .98-.98.98.98 0 0 0-.98-.99.98.98 0 0 0-.43.1L5.54 4.46a.98.98 0 0 0 .1-.43.98.98 0 0 0-.99-.98.98.98 0 0 0-.42.1l-1.1-1.1a5.4 5.4 0 0 1 3.2-1.04z" fill="#a02c2c"/></svg>

<?xml version="1.0" encoding="UTF-8" standalone="no"?>
<svg
   xmlns:dc="http://purl.org/dc/elements/1.1/"
   xmlns:cc="http://creativecommons.org/ns#"
   xmlns:rdf="http://www.w3.org/1999/02/22-rdf-syntax-ns#"
   xmlns:svg="http://www.w3.org/2000/svg"
   xmlns="http://www.w3.org/2000/svg"
   xmlns:sodipodi="http://sodipodi.sourceforge.net/DTD/sodipodi-0.dtd"
   xmlns:inkscape="http://www.inkscape.org/namespaces/inkscape"
   width="48"
   height="48"
   viewBox="0 0 12.7 12.7"
   version="1.1"
   id="svg4"
   sodipodi:docname="git.svg"
   inkscape:version="0.92.4 (5da689c313, 2019-01-14)">
  <metadata
     id="metadata10">
    <rdf:RDF>
      <cc:Work
         rdf:about="">
        <dc:format>image/svg+xml</dc:format>
        <dc:type
           rdf:resource="http://purl.org/dc/dcmitype/StillImage" />
        <dc:title></dc:title>
      </cc:Work>
    </rdf:RDF>
  </metadata>
  <defs
     id="defs8" />
  <sodipodi:namedview
     pagecolor="#ffffff"
     bordercolor="#666666"
     borderopacity="1"
     objecttolerance="10"
     gridtolerance="10"
     guidetolerance="10"
     inkscape:pageopacity="0"
     inkscape:pageshadow="2"
     inkscape:window-width="1087"
     inkscape:window-height="480"
     id="namedview6"
     showgrid="false"
     inkscape:zoom="4.9166667"
     inkscape:cx="2.1355932"
     inkscape:cy="24"
     inkscape:window-x="0"
     inkscape:window-y="25"
     inkscape:window-maximized="0"
     inkscape:current-layer="svg4" />
  <path
     d="M 6.34,0.07 A 6.29,6.29 0 0 0 0.05,6.37 6.29,6.29 0 0 0 6.35,12.65 6.29,6.29 0 0 0 12.63,6.36 6.29,6.29 0 0 0 6.34,0.07 Z M 6.33,1.01 a 5.4,5.4 0 0 1 5.4,5.4 5.4,5.4 0 0 1 -5.4,5.41 A 5.4,5.4 0 0 1 0.92,6.42 5.4,5.4 0 0 1 2.63,2.48 L 3.77,3.6 A 0.98,0.98 0 0 0 3.67,4.02 0.98,0.98 0 0 0 4.32,4.95 V 8.02 A 0.98,0.98 0 0 0 3.67,8.94 0.98,0.98 0 0 0 4.65,9.93 0.98,0.98 0 0 0 5.64,8.94 0.98,0.98 0 0 0 4.98,8.02 V 4.96 a 0.98,0.98 0 0 0 0.1,-0.04 l 1.3,1.31 A 0.98,0.98 0 0 0 6.29,6.66 0.98,0.98 0 0 0 7.28,7.64 0.98,0.98 0 0 0 8.26,6.66 0.98,0.98 0 0 0 7.28,5.67 0.98,0.98 0 0 0 6.85,5.77 L 5.54,4.46 A 0.98,0.98 0 0 0 5.64,4.03 0.98,0.98 0 0 0 4.65,3.05 0.98,0.98 0 0 0 4.23,3.15 l -1.1,-1.1 a 5.4,5.4 0 0 1 3.2,-1.04 z"
     id="path2"
     inkscape:connector-curvature="0"
     style="fill:#a02c2c" />
</svg>
